X:197
T: Die Mordeltern
N: Q0085m
O: Mitteleuropa, Deutschland (DDR) , Sachsen, Anhalt
R: Ballade, Habgier, Mord, Reue, Selbstmord
M: 4/4
L: 1/8
K: G
G | G2c2d3B | B2A2A2z
A | A2e2e3B | c2B2B2z
G | G2d2d2B2 | c2g2g2
g2 | f2e2d2G2 | BAG2z3

@@@ Tune index: 1252
